third_party/region-flags/svg/WF.svg

<svg xmlns="http://www.w3.org/2000/svg" width="900" height="600" viewBox="0 0 150 100"><path fill="#ED2939" d="M0 0h150v100H0z"/><path fill="#FFF" d="M0 0h40v40H0z"/><path fill="#002395" d="M0 0h20v40H0z"/><path fill="none" stroke="#FFF" d="M0 40h60V0"/><path fill="#FFF" d="M105 46L93 34h24zm-4 4L89 38v24zm4 4L93 66h24zm4-4l12-12v24z"/></svg>

<?xml version="1.0" encoding="UTF-8"?>
<svg xmlns="http://www.w3.org/2000/svg" width="900" height="600" viewBox="0 0 150 100">
<path fill="#ED2939" d="M0,0H150V100H0z"/>
<path fill="#FFF" d="M0,0H40V40H0z"/>
<path fill="#002395" d="M0,0H20V40H0z"/>
<path fill="none" stroke="#FFF" d="M0,40H60V0"/>
<path fill="#FFF" d="M105,46 93,34H117zM101,50 89,38V62zM105,54 93,66H117zM109,50 121,38V62z"/>
</svg>
